X:1
T:Mine!
T:James McGranahan
T:Mine!
T:Public Domain
T:Public Domain
C:James McGranahan
Z:Public Domain
%%score ( 1 2 ) ( 3 4 )
L:1/8
M:4/4
K:Eb
V:1 treble 
V:2 treble 
V:3 bass 
V:4 bass 
V:1
 E>[EF] | [EG]3 [EA] [EG]E | [DF]4 [DF]>[EG] | [FA]3 [Ac] [GB][FA] | [EG]4 [GB]>[GB] | %5
w: 1.~Mine! what|of glo- ry bright|up- on the|pro- mise shine! I|have found the|
w: 2.~Mine! the|mise oft- en read,|in liv- ing|truth im- pressed, Once|ac- know- ledged|
w: 3.~Mine! the|mise can- not change;|tho’ oft my|eyes are dim; Naught|can from His|
w: 4.~Mine! tho’|my hand may fail,|is strong and|holds me fast; By|His blood I|
w: 5.~Mine! when|the bars shall break,|those glo- ries|all di- vine. “Sa-|tis- fied” I|
 [Ge]3 [Ge] [Bd][Ac] | ([GB]2 [EG]2) E>[EF] | [EG]3 [EA] [EG][DF] | E4 ||"^Refrain" [GB]>[EG] | %10
w: Lord my light; I|am * His, and|is mine. * *|||
w: in the head, Now|a * fire with-|the breast. * *|||
w: love es- trange, Those|who * place their|in Him. Mine, oh|mine,|oh, mine,|
w: shall pre- vail, He|shall * lead me|at last. * *|||
w: shall a- wake, Clasp|His * feet, and|Him mine. * *|||
 [GB]4 [Ac]>[FA] | [Ac]4 [Ad]>[Ad] | [Ge]3 [Ge] [Bd][Ac] | [GB]2 [EG]2 E>F | [EG]3 [EA] [DG][B,F] | %15
w: |||||
w: |||||
w: Je- sus Christ,|my Lord and|Sav- ior, I am|His, and He is||
w: |||||
w: |||||
 [B,E]4 |] %16
w: |
w: |
w: |
w: |
w: |
V:2
 E3/2 x/ | x5 E | x6 | x6 | x6 | x6 | x4 E3/2 x/ | x6 | E4 || x2 | x6 | x6 | x6 | x4 E>F | x6 | %15
w: rays|Now|||||He|||||||||
w: pro-|Now|||||in|||||||||
w: pro-|Mine!|||||trust||mine,|||||mine! *||
w: oft|He|||||home|||||||||
w: death|’Mid|||||call|||||||||
 x4 |] %16
w: |
w: |
w: |
w: |
w: |
V:3
 [E,G,]>[E,A,] | [E,B,]3 [E,C] [E,B,][E,G,] | [B,,B,]4 [B,,B,]>[B,,B,] | %3
 [B,,B,]3 [B,,B,] [B,,B,][B,,B,] | [E,B,]4 [E,E]>[E,E] | [E,B,]3 [E,B,] [E,B,][E,E] | %6
 (E2 B,2) [E,G,]>[E,A,] | [E,B,]3 [A,,C] [B,,B,][B,,A,] | [E,G,]4 || [E,E]>[E,B,] | %10
 [E,E]4 [A,E]>[A,C] | [A,E]4 [F,B,]>[F,B,] | [E,B,]3 [E,B,] [E,B,][E,C] | %13
 [E,C]2 [E,B,]2 [G,,B,]>[A,,C] | [B,,B,]3 [B,,C] [B,,B,][B,,A,] | [E,G,]4 |] %16
V:4
 x2 | x6 | x6 | x6 | x6 | x6 | E,4 x2 | x6 | x4 || x2 | x6 | x6 | x6 | x6 | x6 | x4 |] %16

